X: 1
T: Dr & Mrs Nedderman
C: Sheena Sturrock
R: strathspey
Z: 2017 John Chambers <jc:trillian.mit.edu>
N: Suggested tune for John Drewry's "Bridge of Sighs"
M: C
L: 1/8
K: G
E2 "A"|:\
"G"D<G G>A B>A B<d | "C"(3efg "G"d>B "D7"A<G A<B |\
"G"D<G G>A B>A B<d | "C"(3efg "G"d>B "D7"A<B "G"G2 :|
"B1"[|]\
"G"B<d d>e d>B "D"A2 | "Em"B<e e>f g>f ge |\
"G"d>B GB "D"AF DF | "Em"(3GAB "B7"A>F "Em"G<E E2 ||
"B2"[|]\
"G"G2 B>A B>d d2 | "C"e>f ge "G"dB "D7"AB |\
"G"G>D EG "C"c>d ec | "G"d<g "D7"B>A "G"G2 |]

%%sep 1 1 500

